X:135
T:The Deep Green Pool
B:Terry "Cuz" Teahan "Sliabh Luachra on Parade" 1980
Z:Patrick Cavanagh
M:6/8
L:1/8
R:Set Dance
K:G
D/E/F | G2G B,DG | EGc ecA | DEG A,CF | G,CD AFD | 
G2G B,DG | Bdg bgd | ecA DFA | G3 G :| 
ga |: bgd B2b | c'gf dcA | A,B,C F2A | ccf afd | 
bgb dBd | geg ecA | A,CD/F/ B,DG/B/ | cAF AFD :| 
|: G2G gdB | gdB cAF | DFA cAF | cAF afd | 
bgb Bcg | ecA FAc | dBG DGB | cAF Dga :| 
|: bgd B2b | c'af dcA | A,DF A,CF | G,B,D Gga | 
bgd B2b | c'af dcA | A,DF A,CF | G,B,D G3 :|| 

